!! 00000] TT[WS
!!!OTL: Shenmoren liuxia lan changgong
!!!ARE: Asia, China,ÿShanxi Hequ
!! Ethnic Group: Han
!! WI, 24
!!!SCT: J0026
!!!YEM: Copyright 1995, estate of Helmut Schaffrath.
**kern
*ICvox
*Ivox
*M2/4
*k[b-e-]
*B-:
{8.ff
16ff
8gg
16ccc
16ccc
=1
8gg
8ff
8dd
8cc
=2
4ff
8gg
8bb-
=3
2cc}
=4
{8.ff
16ff
8gg
8ccc
=5
8gg
8ff
8dd
8cc
=6
8.b-
16dd
8cc
8g
=7
2f}
==
!!!AGN: Shange, Shanqu. Qingge
!!!ONB: ESAC (Essen Associative Code) Database: CHINA
!!!AMT: simple duple
!!!AIN: vox
!!!EED: Helmut Schaffrath
!!!EEV: 1.0
*-
